icons/conda.svg

<!--
  - The MIT License (MIT)
  -
  - Copyright (c) 2015-2024 Elior "Mallowigi" Boukhobza
  -
  - Permission is hereby granted, free of charge, to any person obtaining a copy
  - of this software and associated documentation files (the "Software"), to deal
  - in the Software without restriction, including without limitation the rights
  - to use, copy, modify, merge, publish, distribute, sublicense, and/or sell
  - copies of the Software, and to permit persons to whom the Software is
  - furnished to do so, subject to the following conditions:
  -
  - The above copyright notice and this permission notice shall be included in all
  - copies or substantial portions of the Software.
  -
  - THE SOFTWARE IS PROVIDED "AS IS", WITHOUT WARRANTY OF ANY KIND, EXPRESS OR
  - IMPLIED, INCLUDING BUT NOT LIMITED TO THE WARRANTIES OF MERCHANTABILITY,
  - FITNESS FOR A PARTICULAR PURPOSE AND NONINFRINGEMENT. IN NO EVENT SHALL THE
  - AUTHORS OR COPYRIGHT HOLDERS BE LIABLE FOR ANY CLAIM, DAMAGES OR OTHER
  - LIABILITY, WHETHER IN AN ACTION OF CONTRACT, TORT OR OTHERWISE, ARISING FROM,
  - OUT OF OR IN CONNECTION WITH THE SOFTWARE OR THE USE OR OTHER DEALINGS IN THE
  - SOFTWARE.
  -
  -->

<svg  version="1.1" xmlns="http://www.w3.org/2000/svg" viewBox="0 0 445 512" width="16px" height="16px">
  <path fill="#9CCC65" data-iconColor="Conda"
        d="M232.4195709,112.2266464c-15.0406647,2.8924408-26.6104279,8.6773224-26.0319366,8.6773224c-0.5784912-7.52034-0.5784912-22.5610275,3.4709167-39.9156723C222.0067902,93.1365509,228.9486542,105.8632812,232.4195709,112.2266464z M178.6202087,136.5231323c-12.1482391,9.2558136-20.2470856,19.0901031-20.2470856,17.9331207c-4.049408-6.9418488-11.5697479-20.8255615-16.1976471-39.9156494C160.1085968,122.0609436,172.2568359,131.3167419,178.6202087,136.5231323z M248.6172485,94.8720093c-6.3633728-10.4127808-16.1976776-24.2964859-31.8168335-37.6017075c5.2063751-13.8837128,12.7267303-27.7674198,23.7180023-41.6511307c13.8836975,11.5697584,24.2964935,24.8749809,31.8168182,38.1801987C260.1870117,69.418541,252.6666565,84.4592285,248.6172485,94.8720093z M127.7132721,209.9911041c-8.0988235-5.2063904-22.5610275-16.7761536-35.2877502-34.7092743c21.4040451-1.7354736,39.9156494,1.1569672,49.171463,2.8924255C132.3972168,193.867981,127.8006134,208.635498,127.7132721,209.9911041z M55.4022903,240.6509552c-13.3052216-9.8342896-26.0319519-23.1395111-35.8662491-40.4941406c16.7761478-11.5697784,34.7092743-18.5116119,52.0639114-21.9825592c12.1482468,19.0901031,27.1889267,32.9738312,37.6017151,41.651123C95.8964386,221.5608673,76.2278519,227.3457336,55.4022903,240.6509552z M121.9283905,273.6247864c-9.8342896-2.3139648-30.0813599-8.6773376-51.4854126-21.9825439c23.1395111-13.883728,43.3865891-15.6191864,51.4854126-16.1976776C120.1929321,247.592804,120.1929321,260.8980408,121.9283905,273.6247864z M190.7684479,64.7906418c-5.7848663,20.2470779-7.5203247,38.1802063-7.5203247,49.7499619c-10.4127808-7.5203476-25.453476-16.7761459-45.1220703-23.1395187c-1.1569672-13.8837051-0.5784912-30.0813713,3.470932-47.4360046C161.8440552,48.5929794,178.0417175,56.1133232,190.7684479,64.7906418z M368.942749,22.5610275c0,0,41.651123,21.9825401,65.9476013,44.5435638c9.834259,7.52034,12.1482239,23.7180023,2.8924255,33.5522995c-4.049408,5.2063904-42.8081055,45.1220551-49.749939,49.7499542c-12.1482544,5.7848816-20.8255615,2.3139496-30.0813904-5.7848663c-8.6773071-7.5203552-17.933136-13.8837128-28.3458862-19.0901108c19.0900879-16.1976547,36.4447327-23.1395187,56.1132812-27.7674103C385.1403809,72.3109818,368.942749,22.5610275,368.942749,22.5610275z M9.7017488,183.9591522c8.0988302-27.1889496,21.4040527-53.7993774,38.1801987-77.5173874c1.1569786,20.8255692,6.363369,38.7586899,13.8837128,54.3778763C44.4110222,164.8690491,27.056385,172.389389,9.7017488,183.9591522z M136.9690857,158.5056915c-13.3052216-2.3139648-32.9738083-4.0494385-56.1133347-0.5784912c-7.52034-15.0406952-13.3052139-32.3953323-14.4621887-52.6424103c20.2470779-2.8924408,37.6017151-1.1569672,53.2208862,2.3139496C123.6638641,129.5812836,131.1842041,147.5144043,136.9690857,158.5056915z M41.5185814,251.063736c-13.883709,11.5697784-27.1889305,26.0319672-38.1801987,46.2790375c-4.627903-28.924408-4.627903-60.1627502,1.1569755-89.6656342C14.9081392,225.6102753,28.2133617,240.072464,41.5185814,251.063736z M7.9662852,322.2177734c13.883707-28.3459167,31.2383461-48.0145264,47.4360046-60.741272c32.9738083,22.5610657,65.369133,28.924408,69.9970322,29.5028992c25.453476,102.3923645,146.3574219,141.7295227,230.2381897,75.7819214c30.6598206-23.7179871,38.1802063-1.1569824,74.624939,33.5522766l0,0c6.9418335,7.5203552,24.8749695,21.9825439,5.2063904,42.8081055C316.8788147,567.496582,60.6086807,521.2175903,7.9662852,322.2177734z M341.7537842,27.1889305c11.5697632,17.9331245,15.6191711,39.3371773,16.7761536,50.9069328c-9.8342896,4.0494156-26.0319519,11.5697556-42.2296143,24.2964859c-2.3139648-10.4127731-6.3633728-27.1889191-15.0406799-45.7005386C311.6724243,45.7005424,324.9776611,35.2877617,341.7537842,27.1889305z M268.8643188,109.3342133c2.3139648-6.3633652,6.9418335-17.9331284,15.0406799-30.6598587c5.7848816,15.0406799,8.6773376,27.1889267,9.2557983,34.1307755C285.0619812,111.0696716,276.9631653,109.9126968,268.8643188,109.3342133z M289.1113892,34.7092743C281.5910645,23.1395149,271.7567444,10.9912701,259.6085205,0c23.7179871,0,45.700531,2.3139515,67.1046143,7.5203428C311.6724243,15.6191721,299.5241699,24.874979,289.1113892,34.7092743z M379.3554993,389.9008484c-100.0464783,83.0822144-230.6508636,35.8264771-278.252655-72.3110046c0,0-16.7761459-0.5784912-39.3371773-9.8342896c0,0-9.8342934,13.8836975-16.7761459,37.0232239c84.4592285,159.0841675,263.2120056,172.3893738,368.4967957,80.4098206C413.5921936,422.6098328,382.2642822,388.9773865,379.3554993,389.9008484z M221.4283142,3.4709275c-10.4127808,13.3052206-17.933136,26.6104431-23.7180023,39.9156609c-12.6390686-8.0430412-27.5599976-14.9451466-45.8966522-19.572773C173.8586578,14.0316477,197.3408508,7.1766906,221.4283142,3.4709275z M66.9567871,84.3898468c13.5520935-14.6980133,31.2363281-30.2896652,54.2891464-44.5471039c-3.3900299,16.5844803-4.5181122,32.0351334-3.9454422,46.351944C102.4124527,83.3316116,85.2571716,82.1689453,66.9567871,84.3898468z"/>
</svg>

<svg xmlns="http://www.w3.org/2000/svg" viewBox="0 0 445 512"><path fill="#9ccc65" d="M232.42 112.227c-15.041 2.892-26.61 8.677-26.032 8.677-.579-7.52-.579-22.561 3.47-39.916 12.149 12.149 19.09 24.875 22.562 31.239m-53.8 24.296c-12.148 9.256-20.247 19.09-20.247 17.933-4.05-6.942-11.57-20.825-16.198-39.915 17.934 7.52 30.082 16.776 36.445 21.982m69.997-41.651C242.254 84.459 232.42 70.576 216.8 57.27c5.207-13.883 12.727-27.767 23.718-41.65 13.884 11.569 24.297 24.874 31.817 38.18-12.148 15.619-19.668 30.66-23.718 41.072m-120.904 115.12c-8.099-5.207-22.56-16.777-35.287-34.71 21.404-1.736 39.915 1.157 49.171 2.892-9.2 15.694-13.796 30.461-13.884 31.817m-72.31 30.659a129.8 129.8 0 0 1-35.867-40.494c16.776-11.57 34.71-18.512 52.064-21.983 12.148 19.09 27.189 32.974 37.602 41.651-13.306 1.736-32.974 7.52-53.8 20.826m66.525 32.974c-9.834-2.314-30.081-8.678-51.485-21.983 23.14-13.883 43.387-15.619 51.485-16.197-1.735 12.148-1.735 25.453 0 38.18m68.84-208.834c-5.784 20.247-7.52 38.18-7.52 49.75-10.413-7.52-25.453-16.777-45.122-23.14a153 153 0 0 1 3.471-47.436c20.247 4.628 36.445 12.148 49.171 20.826m178.175-42.23s41.65 21.983 65.947 44.544c9.835 7.52 12.149 23.718 2.893 33.552-4.05 5.206-42.808 45.122-49.75 49.75-12.148 5.785-20.826 2.314-30.082-5.785-8.677-7.52-17.933-13.884-28.345-19.09 19.09-16.198 36.444-23.14 56.113-27.768-.579-25.453-16.776-75.203-16.776-75.203M9.702 183.959c8.099-27.189 21.404-53.8 38.18-77.517 1.157 20.825 6.363 38.758 13.884 54.378-17.355 4.049-34.71 11.57-52.064 23.14m127.267-25.453c-13.305-2.314-32.974-4.05-56.113-.579-7.52-15.04-13.305-32.395-14.462-52.642 20.247-2.893 37.601-1.157 53.22 2.314 4.05 21.982 11.57 39.915 17.355 50.907m-95.45 92.558c-13.884 11.57-27.19 26.032-38.18 46.279-4.629-28.925-4.629-60.163 1.156-89.666 10.413 17.933 23.718 32.395 37.024 43.387M7.966 322.218c13.884-28.346 31.239-48.015 47.436-60.741 32.974 22.56 65.37 28.924 69.997 29.502 25.454 102.393 146.358 141.73 230.239 75.782 30.66-23.718 38.18-1.157 74.624 33.553 6.942 7.52 24.875 21.982 5.207 42.808-118.59 124.375-374.86 78.096-427.503-120.904m333.788-295.03c11.57 17.934 15.619 39.338 16.776 50.908-9.834 4.05-26.032 11.57-42.23 24.296-2.314-10.412-6.363-27.189-15.04-45.7 10.412-10.991 23.718-21.404 40.494-29.503m-72.89 82.146c2.314-6.363 6.942-17.933 15.041-30.66 5.785 15.041 8.677 27.19 9.256 34.131a175.5 175.5 0 0 0-24.297-3.47m20.247-74.625C281.591 23.14 271.757 10.991 259.61 0c23.718 0 45.7 2.314 67.104 7.52-15.04 8.1-27.189 17.355-37.602 27.19m90.244 355.192c-100.046 83.082-230.65 35.826-278.252-72.311 0 0-16.776-.579-39.337-9.834 0 0-9.835 13.883-16.776 37.023 84.459 159.084 263.212 172.39 368.496 80.41.106-2.58-31.222-36.212-34.13-35.288M221.428 3.47c-10.412 13.305-17.933 26.61-23.718 39.916-12.639-8.043-27.56-14.946-45.896-19.573 22.045-9.782 45.527-16.637 69.614-20.343M66.957 84.39c13.552-14.698 31.236-30.29 54.289-44.547-3.39 16.584-4.518 32.035-3.946 46.352-14.888-2.863-32.043-4.026-50.343-1.805" data-iconColor="Conda"/></svg>
